X:236
T:Polska i F
R:polska
N:Ur en gammal notbok tillhörande Gotlands fornsal.
O:Gotland
B:Gotlandstoner nr 236
Z:Erik Ronström 2002-10-21
M:3/4
L:1/16
K:F
f4 f2ef gfed|d2c2 cdcB cBAG|Acfa agfe fafc|cBAG AGFG A2F2|
f4 f2ef gfed|d2c2 BdcB cBAB|Acfa agfe fafc|cBAG G2F2 F4::
BGBG BGBG BGBG|AFAF AFAF BAGF|BGBG BGBG BGBG|AFAF AFAF BAGF|
F2f2 f2ef gfed|d2c2 cdcB cBAB|Acfa agfe fafc|cBAG G2F2 F4:|

